public/images/wrap.svg

<?xml version="1.0"?>
<svg xmlns="http://www.w3.org/2000/svg" viewBox="0 0 50 50" enable-background="new 0 0 50 50">
    <path style="text-indent:0;text-align:start;line-height:normal;text-transform:none;block-progression:tb;-inkscape-font-specification:Bitstream Vera Sans" d="M 25 0 C 14.963082 0 9.1176203 6.7244515 9 13.78125 A 1.0001 1.0001 0 0 0 9 14 A 1.0001 1.0001 0 0 0 9 14.09375 C 9.013082 17.550511 9.8366854 25.007218 10.65625 31.75 C 11.480417 38.530645 12.308542 44.471332 12.3125 44.5 C 12.3135 44.51029 12.3114 44.52098 12.3125 44.53125 C 12.572467 46.986929 14.49062 48.990773 17 49.46875 A 1.0001 1.0001 0 0 0 17.03125 49.5 C 17.800092 49.62814 19.438735 49.711874 21.25 49.8125 C 23.061265 49.913126 24.95 50 26 50 A 1.0001 1.0001 0 0 0 26.1875 49.96875 L 26.21875 50 L 26.4375 50 C 29.050268 49.899509 31.709855 49.708238 33.28125 49.375 C 33.29105 49.373 33.30273 49.377 33.3125 49.375 C 35.716533 48.880972 37.509707 46.882889 37.78125 44.5625 C 37.78365 44.54211 37.77905 44.52044 37.78125 44.5 C 37.79889 44.391646 41.09375 24.19265 41.09375 14 A 1.0001 1.0001 0 0 0 41 13.5625 C 40.935946 11.056809 40.283602 7.8001379 38.0625 5.0625 C 35.713037 2.1666498 31.613542 0 25 0 z M 25 2 C 31.186458 2 34.580713 3.9396002 36.53125 6.34375 C 37.285486 7.2733896 37.808741 8.2817541 38.1875 9.3125 A 1.0001 1.0001 0 0 0 38.1875 9.34375 C 38.224135 10.589422 37.827453 11.315125 37.0625 11.96875 C 37.042679 11.899694 37.023021 11.852331 37 11.78125 C 36.796476 11.152825 36.457434 10.37171 35.875 9.625 C 35.001349 8.5049346 33.506005 7.5371702 31.375 7.375 C 30.791758 7.3306151 30.148827 7.3802937 29.46875 7.46875 C 28.358652 6.3201706 27.096603 5.6259509 25.96875 5.25 C 24.999008 4.9267525 24.092094 4.8114032 23.4375 4.78125 C 22.782906 4.7510968 22.375 4.8125 22.375 4.8125 A 1.0001 1.0001 0 0 0 21.625 6.25 C 21.625 6.25 21.799575 6.6849058 22 7.3125 C 16.658048 7.4583952 13.778251 11.554392 12.75 13.40625 C 12.738844 13.398554 12.729765 13.382731 12.71875 13.375 C 11.855422 12.769086 11.442794 12.163608 11.40625 11.25 A 1.0001 1.0001 0 0 0 11.375 11.0625 C 12.663383 6.1507115 17.249175 2 25 2 z M 23.96875 6.96875 C 24.459101 6.993718 24.579973 6.901658 25.34375 7.15625 C 26.854265 7.659755 28.562616 8.7346643 29.65625 11.46875 A 1.0097184 1.0097184 0 0 0 31.53125 10.71875 C 31.336763 10.232532 31.109693 9.7880739 30.875 9.375 C 32.707457 9.3665041 33.65034 10.066142 34.28125 10.875 C 34.673816 11.37829 34.941024 11.934675 35.09375 12.40625 C 35.18159 12.677474 35.219913 12.886645 35.25 13.0625 C 34.47736 13.394806 33.598787 13.67665 32.65625 13.9375 C 31.001677 14.395408 29.191807 14.792975 27.5625 15.34375 C 26.000729 15.871695 24.535583 16.561406 23.59375 17.78125 C 21.643879 16.293848 18.792532 15.732382 16.3125 14.9375 C 15.679111 14.73449 15.086857 14.536949 14.53125 14.3125 C 15.38352 12.74655 17.78739 9.2351948 22.4375 9.3125 C 22.52678 10.046223 22.577329 10.884551 22.5 11.8125 A 1.0030471 1.0030471 0 1 0 24.5 11.96875 C 24.683112 9.7714066 24.333103 8.1515027 23.96875 6.96875 z M 19.40625 11.78125 A 1.0001 1.0001 0 0 0 19.3125 13.75 C 19.3125 13.75 20.354869 14.110812 21.03125 14.9375 A 1.0001 1.0001 0 1 0 22.5625 13.65625 C 21.438881 12.282938 19.90625 11.84375 19.90625 11.84375 A 1.0001 1.0001 0 0 0 19.59375 11.78125 A 1.0001 1.0001 0 0 0 19.40625 11.78125 z M 38.9375 12.9375 C 38.963966 13.304524 39 13.662546 39 14 A 1.0001 1.0001 0 0 0 39.09375 14.40625 C 39.01001 24.329278 35.8125 44.25 35.8125 44.25 L 35.8125 44.28125 C 35.660492 45.725321 34.466246 47.094251 32.90625 47.40625 L 32.875 47.4375 C 31.691052 47.691203 29.109555 47.864969 26.625 47.96875 C 24.741845 47.171229 23.261016 45.345096 22.25 42.875 C 21.213984 40.343824 20.6875 37.247746 20.6875 34.3125 C 20.6875 26.726175 23.130529 21.848019 25.125 19.09375 L 25.125 19.0625 C 25.640301 18.333971 26.719932 17.7461 28.1875 17.25 C 29.655068 16.7539 31.454573 16.354592 33.1875 15.875 C 34.920427 15.395408 36.620002 14.843965 37.96875 13.84375 C 38.324482 13.579943 38.650614 13.277443 38.9375 12.9375 z M 11 14.5625 C 11.175849 14.719414 11.369846 14.864789 11.5625 15 C 11.894494 15.233005 12.255352 15.432992 12.625 15.625 A 1.0001 1.0001 0 0 0 12.90625 15.75 C 13.778294 16.174266 14.716106 16.532406 15.6875 16.84375 C 18.302792 17.681984 21.0748 18.442911 22.46875 19.4375 C 20.550286 22.619896 18.6875 27.497747 18.6875 34.3125 C 18.6875 37.477254 19.242266 40.812426 20.40625 43.65625 C 21.068442 45.274104 21.94613 46.744795 23.0625 47.90625 C 22.493774 47.879051 21.922662 47.844662 21.34375 47.8125 C 19.555015 47.713126 17.806158 47.57186 17.375 47.5 L 17.375 47.53125 C 15.694876 47.211226 14.434289 45.842895 14.28125 44.3125 A 1.0001 1.0001 0 0 0 14.28125 44.25 C 14.28125 44.25 13.480097 38.309261 12.65625 31.53125 C 11.87451 25.099663 11.078655 17.917587 11 14.5625 z M 27 24 C 25.895431 24 25 24.895431 25 26 C 25 27.104569 25.895431 28 27 28 C 28.104569 28 29 27.104569 29 26 C 29 24.895431 28.104569 24 27 24 z M 30 30 C 29.447715 30 29 30.447715 29 31 C 29 31.552285 29.447715 32 30 32 C 30.552285 32 31 31.552285 31 31 C 31 30.447715 30.552285 30 30 30 z" overflow="visible" enable-background="accumulate" font-family="Bitstream Vera Sans"/>
</svg>

<svg xmlns="http://www.w3.org/2000/svg" viewBox="0 0 50 50"><path style="text-indent:0;text-align:start;line-height:normal;text-transform:none;block-progression:tb;-inkscape-font-specification:Bitstream Vera Sans" d="M25 0C14.963 0 9.118 6.724 9 13.781A1 1 0 009 14a1 1 0 000 .094c.013 3.457.837 10.913 1.656 17.656.824 6.78 1.653 12.721 1.656 12.75.002.01 0 .021 0 .031.26 2.456 2.179 4.46 4.688 4.938a1 1 0 00.031.031c.77.128 2.408.212 4.219.313 1.811.1 3.7.187 4.75.187a1 1 0 00.188-.031l.03.031h.22c2.612-.1 5.272-.292 6.843-.625.01-.002.022.002.032 0 2.404-.494 4.197-2.492 4.468-4.813.003-.02-.002-.042 0-.062.018-.108 3.313-20.307 3.313-30.5a1 1 0 00-.094-.438c-.064-2.505-.716-5.762-2.938-8.5C35.713 2.167 31.614 0 25 0zm0 2c6.186 0 9.58 1.94 11.531 4.344.754.93 1.278 1.938 1.657 2.968a1 1 0 000 .032c.036 1.245-.36 1.971-1.126 2.625-.02-.07-.039-.117-.062-.188a7.012 7.012 0 00-1.125-2.156c-.874-1.12-2.369-2.088-4.5-2.25-.583-.044-1.226.005-1.906.094a8.727 8.727 0 00-3.5-2.219 9.508 9.508 0 00-2.532-.469c-.654-.03-1.062.032-1.062.032a1 1 0 00-.75 1.437s.175.435.375 1.063c-5.342.145-8.222 4.241-9.25 6.093-.011-.007-.02-.023-.031-.031-.864-.606-1.276-1.211-1.313-2.125a1 1 0 00-.031-.188C12.663 6.152 17.249 2 25 2zm-1.031 4.969c.49.025.611-.067 1.375.187 1.51.504 3.219 1.579 4.312 4.313a1.01 1.01 0 001.875-.75c-.194-.486-.421-.93-.656-1.344 1.832-.008 2.775.691 3.406 1.5.393.503.66 1.06.813 1.531.088.271.126.48.156.656-.773.333-1.651.615-2.594.876-1.654.457-3.464.855-5.093 1.406-1.562.528-3.027 1.217-3.97 2.437-1.95-1.487-4.8-2.049-7.28-2.843-.634-.204-1.226-.401-1.782-.626.853-1.565 3.256-5.077 7.906-5 .09.734.14 1.573.063 2.5a1.003 1.003 0 102 .157c.183-2.198-.167-3.817-.531-5zm-4.563 4.812a1 1 0 00-.093 1.969s1.042.36 1.718 1.188a1 1 0 101.532-1.282c-1.124-1.373-2.657-1.812-2.657-1.812a1 1 0 00-.312-.063 1 1 0 00-.188 0zm19.532 1.156c.026.368.062.726.062 1.063a1 1 0 00.094.406c-.084 9.923-3.282 29.844-3.282 29.844v.031c-.152 1.444-1.346 2.813-2.906 3.125l-.031.032c-1.184.253-3.765.427-6.25.53-1.883-.797-3.364-2.623-4.375-5.093-1.036-2.531-1.563-5.627-1.563-8.563 0-7.586 2.444-12.464 4.438-15.218v-.032c.515-.728 1.595-1.316 3.063-1.812 1.467-.496 3.267-.895 5-1.375 1.732-.48 3.432-1.031 4.78-2.031.356-.264.683-.567.97-.906zM11 14.563c.176.156.37.302.563.437.331.233.692.433 1.062.625a1 1 0 00.281.125c.872.424 1.81.782 2.781 1.094 2.616.838 5.388 1.599 6.782 2.593-1.919 3.183-3.782 8.06-3.782 14.875 0 3.165.555 6.5 1.72 9.344.661 1.618 1.54 3.089 2.655 4.25-.568-.027-1.14-.061-1.718-.093-1.789-.1-3.538-.241-3.969-.313v.031c-1.68-.32-2.94-1.688-3.094-3.218a1 1 0 000-.063s-.8-5.94-1.625-12.719C11.875 25.1 11.08 17.918 11 14.563zM27 24a2 2 0 100 4 2 2 0 000-4zm3 6a1 1 0 100 2 1 1 0 000-2z" overflow="visible" font-family="Bitstream Vera Sans"/></svg>
